**kern
*staff1
*head1[head1a]
*head1[head1b]
*head1[head1aa]
*solo2[solo2a]
*solo2[solo2b]
*solo2[solo2aa]
*solo3[solo3a]
*solo3[solo3b]
*solo3[solo3aa]
=1-
*clefG2
*k[]
*B-:
*M4/4
*>head1a
{4f/
12dd\L
12cc\
12b-\J
4a/
12cc\L
12b-\
12a\J
=2
4g/
4r
2r
=3
8dd\L
8ee-\
8dd\
8cc\J
8b/L
8a-/
8g/
8f/J
=4
8e-/L
8G/
8B-/
8d/J
8c/L
8B-/J
12c/L
12e-/
12g/J
=5
4f/
4r
8r
16cc\LL
16b\J
8b-\
8a-\J
=6
8g/L
8f/
8e-/
8B-/J
8b-/L
8g-/
8e-/
8Bn/J
=7
8B-/L
8e-/
8c/
8c#/J
2d/}
=8
2r
4r
8r
{[8d/
=9
4d/]
4f/
8cc/L
8b-/
8a/
8g/J
=10||
8f#/L
8g/
8b-/
8g/J
8e-/L
8c/
8a/
8g/J
=11
8f/L
8e-/
8d/
8c/J
8B/L
8a-/
8g/
8f/J
=12
8e-/L
8G/
8B-/
8d/J
8c/L
8B-/J
12c/L
12e-/
12g-/J
=13
4f/
4r
8cc\L
8b\
8b-\
8a-\J
=14
8g/L
8f/
8e-/
8c/J
8b-/L
8g-/
8e-/
8c/J
=15
8a/L
8f/
8d/
8c/J
2g/}
=16
1r
=17
*>head2b
{12ee\L
12dd\
12cc\J
8b/L
8a/J
8g/L
8f#/
8e/
8A/J
=18||
12c/L
12d/
12B-/J
8b-/L
8f#/J
8d/L
8B-/
8a/
8g/J
=19
8f/L
8e/
8d/
8c/J
8B/L
8d/
8f/
8g/J
=20
12a-/L
12b-/
12a-/J
8g/L
8f/J
8e/L
8d/
8d-/
8B/J
=21
8c/L
8B/
8c/
8d/J
8e/L
8f/
8g/
8a/J
=22
8cc\L
8b\
8b-\
8a\J
8g/L
8f/J
12e/L
12g/
12b-/J
=23
4dd\
8r
8cc\
8b-/L
8a/
8g/
8f/J
=24
8e-/L
8G/
8B-/
8d/J
8c/L
8B-/J
12c/L
12e-/
12g-/J
=25
*>head1aa
4f/
4r
[2b-\
=26||
2b-\]
8a/L
8b-/
8cc/
8a/J
=27
8b-/L
8g/
8d/
8B-/J
2f/}
=28
2r
2r
=29
2r
4r
{12cc#\L
12dd\
12ee-\J
=30
4dd\
2f/
4r
=31
2r
12cc#\L
12dd\
12ee-\J
4dd\
=32
2f/}
2r
=33
*>solo1a
{8a\L
8b-\
8cc\
8b-\J
8a\L
8b-\
8dd\
8ff\J
=34||
8ee\L
8dd-\
8b-\
8g\J
8g-/L
8a/
8cc/
8ee-/J
=35
8cc\L
8cc#\
8dd\
8ccn\J
8b/L
8a-/
8g/
8f/J
=36
8e-/L
8G/
8B-/
8d/J
8c/L
8B-/
8A/J
24c/LL
24e-/
24g-/JJ
=37
8f/L
8g/
8a-/
8g/J
8f/L
8e-/
8d/
8c/J
=38
8b-/L
8g/
8e-/
8B/J
4B-/}
4r
=39
2r
8r
{8e-/L
8c/
8c#/J
=40
8d/L
8B-/
8G/
8A/J
8c/L
8A/J
16B-/LL
16c/
16d/
16f#/JJ
=41
4f/
4r
4r
8r
[8d/
=42||
4d/]
8f/L
8d/J
8e-/L
8c/J}
4r
=43
2r
{8a/L
8b-/
8cc/
8a/J
=44
8b-/L
8g/
8e-/
8c/J
8d-/L
8a/
8g/
8g-/J
=45
8f/L
8g/
8a-/
8g/J
8f/L
8e-/
8d/
8c/J
=46
4b-\
8r
[8dd-\
24dd-\LL]
24ee-\
24dd-\JJ
8b-\L
8cc\
[8a\J
=47
8a/L]
16a#/L
16b/J
8cc/
[8f/J
4f/]}
4r
=48
1r
=49
8r
*>solo1b
{8B/
12c/L
12e-/
12g/J
8b-/L
8g-/
8d/
8c/J
=50||
8b-/L
8a-/
8g/
8a-/J
8cc\L
8ee-\
8cc\
8cc#\J
=51
8dd\L
8b\J}
4r
2r
=52
2r
{12ee\L
12ff\
12ff#\J
12gg\L
12ff#\
12ffn\J
=53
8ee\L
8cc\
8cc#\
8dd\J
8b-/L
8a/
8g/
8f/J
=54
12e/L
12g/
12b-/J
8dd/L
8g/J
8a/L
8cc/
8b-/
8a/J
=55
8g/L
8f/
8e-/
8G/J
8B-/L
8d/
8c/
8B-/J
=56
8A/L
8f#/
8e-/
8en/J
8fn/L
8e-/
8d/
8c/J
=57
4b-\
4r
4f/
*>solo1aa
4b-\
=58||
4cc\}
4r
2r
=59
4r
{8f/L
8g/J
8b-\L
8cc\
8b-\
8dd\J
=60
8ee-/L
8g/J
[4dd\
8dd\L]
[8ee-\
8ee-\]
8g\J
=61
4.dd\
[8ee-\
4ee-\]}
4r
=62
2r
4r
{8dd\L
8ee-\J
=63
8ff\L
8ee-\
8dd\
8cc\J
8b-/L
8a/
8g/
8g-/J
=64
8f/L
8e-/
8B-/
8G/J
8d/L
8F/
8G/
8A/J
=65
8c/L
8B-/
8A/
8B-/J
8d/L
8f/
8g/
8a/J
=66||
8b-/L
8g/
8e-/
8c/J
8d-/L
8a/
8g/
8g-/J
=67
8f/L
8e-/
8d/
8c/J
8B/L
8A-/
8G/
8F/J
=68
4E-/}
4r
4r
*>solo2a
{8d/L
8c/J
=69
8B-/L
8A/
8A-/
8B-/J
8b-/L
8a-/
8g/
8f/J
=70
8e-/L
8A/
8B-/
8c/J
8d-/L
8B-/
8G/
8A/J
=71
8c/L
8B-/
8A/
8B-/J
2d/}
=72
2r
2r
=73
{12f/L
12g/
12f/J
8d/L
8f/J
12b-\L
12cc\
12b-\J
8f/L
8b-/J
=74||
8dd\L
8cc\
8b-\
8a\J
8cc/L
8b-/
8a/
8g/J
=75
4f/}
4r
2r
=76
{8ff\L
8dd\
8ee-\
8cc\J}
2r
=77
4r
{8cc\L
8b\J
8b-/L
8a/
8a-/
8cc/J
=78
8g\L
8b-\
8cc\
8dd\J
8ff\L
8ee-\
8dd\
8cc\J
=79
8b-/L
8g/
8e-/
8c/J
2d/}
=80
2r
2r
=81
*>solo2b
{8cc#\L
8dd\
8cc#\
8dd\J
8ee-\L
8dd\
8ee-\
8dd\J
=82||
8cc#\L
8dd\
8cc#\
8dd\J
8ee-\L
8dd\
8ee-\
8dd\J
=83
8b-\L
8bn\
8b-\
8bn\J
8dd\L
8b\
8dd\
8b\J
=84
8a/L
8f/
8e/
8d/J
8b\L
8cc\
8b\
8cc\J
=85
8dd/L
8a-/
8an/
8cc/J
8b-/L
8a/
8g/
8f/J
=86
8e/L
8c/
8c#/
8d/J
8B-/L
8G/
8cn/
8B-/J
=87
8A/L
8c/
8e-/
8c/J
4g/}
4r
=88
1r
=89
4r
*>solo2aa
{8f/L
8g/J
8b-\L
8ee-\
8dd\
8b-\J
=90||
8dd\L
8ee-\J
4r
4r
8r
8dd-\
=91
4dd\
12ee-\L
12dd\
12cc\J
8b/L
8a-/
8g/
8f/J
=92
8e-/L
8G/
8B-/
8d/J
8c/L
8B-/J
12c/L
12e-/
12g-/J
=93
4f/
4r
8cc\L
8b\
8b-\
8a-\J
=94
8g/L
8f/
8e-/
8c/J
8b-/L
8g-/
8e-/
8B/J
=95
8B-/L
8e-/
8c/
8c#/J
8d/L
8B-/
8G/
8A/J
=96
8c/L
8B-/J
12c/L
12e-/
12g-/J
8f/L
8e-/
8d/
8c/J
=97
12A/L
12B-/
12Bn/J
8c/L
8A/J
8B-/L
[8F/J
4F/]}
=98||
1r
=99
1r
=100
1r
=101
1r
=102
1r
=103
1r
=104
1r
=105
1r
=106
1r
=107
1r
=108
1r
=109
1r
=110
1r
=111
1r
=112
1r
=113
1r
=114
1r
=115
1r
=116
1r
=117
1r
=118
1r
=119
1r
=120
1r
=121
1r
=122
1r
=123
1r
=124
1r
=125
1r
=126
1r
=127
1r
=128
1r
=129
1r
=130||
1r
=131
1r
=132
1r
=133
1r
=134
1r
=135
1r
=136
1r
=137
1r
=138
1r
=139
1r
=140
1r
=141
1r
=142
1r
=143
1r
=144
1r
=145
1r
=146
1r
=147
1r
=148
1r
=149
1r
=150
1r
=151
1r
=152
1r
=153
1r
=154
1r
=155
1r
=156
1r
=157
1r
=158
1r
=159
1r
=160
1r
=161
1r
=162||
1r
=163
1r
=164
1r
=165
1r
=166
1r
=167
1r
=168
1r
=169
1r
=170
1r
=171
1r
=172
1r
=173
1r
=174
1r
=175
1r
=176
1r
=177
1r
=178
1r
=179
1r
=180
1r
=181
1r
=182
1r
=183
1r
=184
1r
=185
1r
=186
1r
=187
1r
=188
1r
=189
1r
=190
1r
=191
1r
=192
1r
=193
*>solo3a
{4b-\
12dd\L
12cc\
12b-\J
4a/
12cc\L
12b-\
12a\J
=194||
8g/L
8f#/
8g/
8g#/J
4a/
12fn/L
12gn/
12a/J
=195
8cc\L
8b-\
8bn\
8a-\J
8e/L
8d/
8b-/
8a-/J
=196
8g/L
8g-/
8f/
8e/J
8e-/L
8B-/
8d/
8c/J
=197
8B-/L
8A/
8A-/
8B-/J
8b-/L
8a-/
8g/
8f/J
=198
8e-/L
8G/
8B-/
8c/J
8d-/L
8B-/
8G/
8A/J
=199
8c/L
8B-/
8A/
8B-/J
8d/L
8f/J}
4r
=200
2r
2r
=201
4r
{8f/L
8b-/J
8ff\L
16ee\L
16ee-\JJ
4dd\}
=202||
2r
4r
{[4dd\
=203
4dd\]
8ff\L
8ee-\J
8dd\L
8cc\
8b\
8dd\J
=204
8cc/L
8g/
8b-/
8a-/J
16an/LL
16a/J
8g/
8d#/
8e/J
=205
8f/L
8g/
8a-/
8g/J
8f/L
8e-/
8d/
8c/J
=206
4b-\
8dd-\L
8b-\J
8cc\
24dd-\LL
24cc\
24b-\JJ
8a-/L
8f/J
=207
8e-/L
8d-/
8B-/
8G/J
[2dn/
=208
4d/]}
4r
2r
=209
*>solo3b
{[1dd
=210||
2dd\]
8r
8B/
12c/L
12e-/
12g/J
=211
8b-/L
8g-/
8c/
8B/J
8B-/L
8gn/
8f#/
8a/J
=212
8cc\L
8ee-\
8cc\
8cc#\J
8dd\L
8b\J}
4r
=213
4r
{8d/L
8e/J
4f/
4r
=214
4r
8e/L
8f/J
8g/L
8a/
8b-/
8cc/J
=215
8dd\
8r
8a/L
8cc/J
8b-/L
8a/
8g/
8f/J
=216
8e-/L
8G/
8B-/
8d/J
8c/L
8A/J
16B-/LL
16c/
16e-/
16g-/JJ
=217
*>solo3aa
4f/
4r
4b-\
4r
=218||
8a/L
8b-/
8cc/
8a/J
8b-/L
8g/
8e-/
8c/J
=219
4a/}
4r
4r
{8g/L
8g-/J
=220
8f/L
8e/
8e-/
8B-/J
8d/L
8c/
8B-/
8A/J
=221
4A-/}
4r
{8b-/L
8a-/
8g/
8f/J
=222
8e-/L
8A/
8B-/
8c/J
8d-/L
8B-/
8G/
8F/J
=223
8c/L
8B-/
8A/
8B-/J
8d/L
8f/
8g/
8a/J
=224
8cc/L
8b-/
8a/
8g/J
[2a/
=225
4a/]
8g/L
8g-/J
8f/L
8d/
8c/
8B-/J
=226
2.c/
4B-/
=227
8A/L
8G/J
2.A;/}
==
*-
